app/images/icon/icon-svg/therapy.svg

<svg width="110" height="110" viewBox="0 0 110 110" fill="none" xmlns="http://www.w3.org/2000/svg">
<path d="M93.8867 32.4414C85.0019 32.4414 77.7734 39.6698 77.7734 48.5547C77.7734 56.3363 83.3181 62.8465 90.6641 64.3438V97.1094C90.6641 100.663 87.7727 103.555 84.2188 103.555C80.6648 103.555 77.7734 100.663 77.7734 97.1094C77.7734 90.16 77.7734 97.0797 77.7734 84.2188C77.7734 77.1109 71.9907 71.3281 64.8828 71.3281C57.7749 71.3281 51.9922 77.1109 51.9922 84.2188C51.9922 88.7936 51.9922 92.5296 51.9922 97.1094C51.9922 100.663 49.1008 103.555 45.5469 103.555C41.9366 103.555 38.8867 100.603 38.8867 97.1094V70.9425C42.7793 70.0109 46.2896 67.4463 48.3239 63.8866C48.3239 63.8866 68.8149 27.8203 69.5619 26.5059C70.7175 24.4834 71.3283 22.183 71.3283 19.8537C71.3283 12.6339 65.5916 6.73191 58.4377 6.45842V3.22266C58.4377 1.44289 56.9948 0 55.2151 0C53.4353 0 51.9924 1.44289 51.9924 3.22266V16.1133C51.9924 17.893 53.4353 19.3359 55.2151 19.3359C56.9948 19.3359 58.4377 17.893 58.4377 16.1133V12.9119C62.0359 13.1779 64.883 16.1885 64.883 19.8537C64.883 21.0633 64.5657 22.258 63.9618 23.3153L51.4527 45.332H19.8754L7.36291 23.3084C6.76264 22.258 6.44531 21.0633 6.44531 19.8537C6.44531 16.1885 9.29242 13.1779 12.8906 12.9119V16.1133C12.8906 17.893 14.3335 19.3359 16.1133 19.3359C17.893 19.3359 19.3359 17.893 19.3359 16.1133V3.22266C19.3359 1.44289 17.893 0 16.1133 0C14.3335 0 12.8906 1.44289 12.8906 3.22266V6.45842C5.73676 6.7317 0 12.6339 0 19.8537C0 22.183 0.610801 24.4832 1.76258 26.4993C2.36779 27.5647 23.0083 63.8937 23.0083 63.8937C25.0394 67.448 28.5491 70.0116 32.4414 70.9427V97.1094C32.4414 104.276 38.4583 110 45.5469 110C52.6548 110 58.4375 104.217 58.4375 97.1094C58.4375 90.16 58.4375 97.0797 58.4375 84.2188C58.4375 80.6648 61.3289 77.7734 64.8828 77.7734C68.4368 77.7734 71.3281 80.6648 71.3281 84.2188C71.3281 88.7936 71.3281 92.5296 71.3281 97.1094C71.3281 104.217 77.1109 110 84.2188 110C91.3266 110 97.1094 104.217 97.1094 97.1094V64.3438C104.455 62.8467 110 56.3363 110 48.5547C110 39.6698 102.772 32.4414 93.8867 32.4414ZM35.6641 64.8828C32.8726 64.8828 30.0354 63.2002 28.6082 60.7026L23.5374 51.7773H47.7909L42.724 60.6955C41.2928 63.2002 38.4555 64.8828 35.6641 64.8828ZM93.8867 58.2227C88.5558 58.2227 84.2188 53.8856 84.2188 48.5547C84.2188 43.2238 88.5558 38.8867 93.8867 38.8867C99.2176 38.8867 103.555 43.2238 103.555 48.5547C103.555 53.8856 99.2176 58.2227 93.8867 58.2227Z" fill="#FFC59E"/>
<path d="M93.8867 51.7773C95.6665 51.7773 97.1094 50.3345 97.1094 48.5547C97.1094 46.7749 95.6665 45.332 93.8867 45.332C92.1069 45.332 90.6641 46.7749 90.6641 48.5547C90.6641 50.3345 92.1069 51.7773 93.8867 51.7773Z" fill="#FFC59E"/>
</svg>

<svg width="110" height="110" fill="none" xmlns="http://www.w3.org/2000/svg"><path d="M93.887 32.441c-8.885 0-16.114 7.229-16.114 16.114 0 7.781 5.545 14.291 12.891 15.789v32.765a6.453 6.453 0 01-6.445 6.446 6.453 6.453 0 01-6.446-6.446V84.22c0-7.108-5.782-12.89-12.89-12.89-7.108 0-12.89 5.782-12.89 12.89v12.89a6.453 6.453 0 01-6.446 6.446c-3.61 0-6.66-2.952-6.66-6.446V70.943c3.892-.932 7.403-3.497 9.437-7.056 0 0 20.49-36.067 21.238-37.381a13.431 13.431 0 001.766-6.652c0-7.22-5.736-13.122-12.89-13.396V3.223a3.223 3.223 0 00-6.446 0v12.89a3.223 3.223 0 006.446 0v-3.201c3.598.266 6.445 3.277 6.445 6.942a6.98 6.98 0 01-.921 3.461l-12.51 22.017H19.876L7.363 23.308a6.974 6.974 0 01-.918-3.454c0-3.665 2.847-6.676 6.446-6.942v3.201a3.223 3.223 0 006.445 0V3.223a3.223 3.223 0 00-6.445 0v3.235C5.737 6.732 0 12.634 0 19.854c0 2.329.61 4.63 1.763 6.645l21.245 37.395c2.031 3.554 5.541 6.118 9.433 7.049v26.166c0 7.167 6.017 12.891 13.106 12.891 7.108 0 12.89-5.783 12.89-12.89V84.218a6.453 6.453 0 016.446-6.446 6.453 6.453 0 016.445 6.446v12.89c0 7.108 5.783 12.891 12.89 12.891 7.109 0 12.891-5.783 12.891-12.89V64.343C104.455 62.847 110 56.336 110 48.554c0-8.884-7.228-16.113-16.113-16.113zM35.664 64.883c-2.791 0-5.629-1.683-7.056-4.18l-5.07-8.926H47.79l-5.067 8.919c-1.431 2.504-4.268 4.187-7.06 4.187zm58.223-6.66c-5.331 0-9.668-4.337-9.668-9.668 0-5.331 4.337-9.668 9.668-9.668 5.33 0 9.668 4.337 9.668 9.668 0 5.33-4.337 9.668-9.668 9.668z" fill="#FFC59E"/><path d="M93.887 51.777a3.223 3.223 0 100-6.445 3.223 3.223 0 000 6.445z" fill="#FFC59E"/></svg>
